!!!COM: Palestrina, Giovanni Perluigi da
!!!OPR: Missa Sine nomine (1591)
!!!OTL: Kyrie II
**kern	**kern	**kern	**kern	**kern	**kern
*Ibass	*Itenor	*Itenor	*Icalto	*Icant	*Icant
!Bassus	!Tenor 2	!Tenor 1	!Altus	!Cantus 2	!Cantus 1
*clefF4	*clefGv2	*clefGv2	*clefG2	*clefG2	*clefG2
*k[b-]	*k[b-]	*k[b-]	*k[b-]	*k[b-]	*k[b-]
*G:dor	*G:dor	*G:dor	*G:dor	*G:dor	*G:dor
*M4/2	*M4/2	*M4/2	*M4/2	*M4/2	*M4/2
=1	=1	=1	=1	=1	=1
1BB-	1d	1F	0r	0r	0r
2BB-	2d	2F	.	.	.
2BB-	2d	2D	.	.	.
=2	=2	=2	=2	=2	=2
2C	2c	2E	1r	0r	1r
2D	2A	2F	.	.	.
4GG	1B-	1G	1d	.	1dd
4AA	.	.	.	.	.
4BB-	.	.	.	.	.
4C	.	.	.	.	.
=3	=3	=3	=3	=3	=3
1D	1A	2r	2d	1a	2dd
.	.	2F	2d	.	2dd
1r	2A	2F	1f	2a	2cc
.	[2d	2F	.	2a	2a
=4	=4	=4	=4	=4	=4
1r	2d]	2G	1e	2g	2b-
.	2c#	2A	.	2e	2.a
2r	1d	2D	2.d	2f	.
.	.	.	.	.	4g
2BB-	.	2d	.	2d	4f
.	.	.	4c	.	4e
=5	=5	=5	=5	=5	=5
2BB-	1r	2d	1B-	2f	2d
2BB-	.	2d	.	2g	1g
2C	2r	2c	1A	1a	.
2D	2d	2A	.	.	2f#
=6	=6	=6	=6	=6	=6
2GG	2d	2.B-	1G	2r	2g
2G	2d	.	.	2b-	2.dd
.	.	4c	.	.	.
2G	2B-	1d	2r	2b-	.
.	.	.	.	.	4cc
2G	2G	.	2d	2b-	[2b-
=7	=7	=7	=7	=7	=7
2F	1A	2r	2f	2cc	4b-]
.	.	.	.	.	4a
2D	.	2F	2f	2dd	2.a
1E-	1r	2G	2B-	1g	.
.	.	.	.	.	4g
.	.	2G	2c	.	[2g
=8	=8	=8	=8	=8	=8
1D	2r	1A	2.d	1r	2g]
.	2d	.	.	.	2f#
.	.	.	4c	.	.
[1GG	4d	4G	4B-	2r	[1g
.	4c	4A	4A	.	.
.	4B-	4B-	2G	2dd	.
.	4A	4c	.	.	.
=9	=9	=9	=9	=9	=9
1GG]	2G	1d	2r	4dd	1g]
.	.	.	.	4cc	.
.	2G	.	2g	4b-	.
.	.	.	.	4a	.
1r	2.c	1r	4g	2g	1r
.	.	.	4f	.	.
.	.	.	4e	2g	.
.	4B-	.	4d	.	.
=10	=10	=10	=10	=10	=10
0r	4A	0r	2c	4cc	2r
.	4G	.	.	4b-	.
.	4F	.	2c	4a	2a
.	4E	.	.	4g	.
.	2D	.	2.d	4f	4a
.	.	.	.	4e	4g
.	[2d	.	.	2d	4f
.	.	.	4c	.	4e
=11	=11	=11	=11	=11	=11
0r	4d]	0r	4B-	2.dd	2d
.	4c	.	4A	.	.
.	4B-	.	2G	.	4g
.	4A	.	.	4cc	4a
.	4G	.	2.d	4b-	4b-
.	4A	.	.	4a	4cc
.	2B-	.	.	2g	[2dd
.	.	.	4e	.	.
=12	=12	=12	=12	=12	=12
1r	1A	2r	2f	1a	2dd]
.	.	2A	2e	.	2cc#
2r	2.D	4A	2d	2a	1dd
.	.	4G	.	.	.
2D	.	4F	2A	4a	.
.	4E	4E	.	4g	.
=13	=13	=13	=13	=13	=13
4D	1F	2D	2A	4f	2dd
4C	.	.	.	4e	.
4BB-	.	2d	1B-	2d	4dd
4AA	.	.	.	.	4cc
2GG	2r	4d	.	1dd	4b-
.	.	4c	.	.	4a
2GG	2G	4B-	2B-	.	4g
.	.	4A	.	.	4f
=14	=14	=14	=14	=14	=14
2.C	4G	2G	4c	1cc	1.e
.	4F	.	4d	.	.
.	4E	2.c	4e	.	.
4D	4D	.	4f	.	.
4E	2C	.	1g	1r	.
4F	.	4B-	.	.	.
[2G	2E	2G	.	.	2c
=15	=15	=15	=15	=15	=15
2G]	1D	1A	0r	2r	1d
2F#	.	.	.	2dd	.
2G	2d	2B-	.	4dd	1d
.	.	.	.	4cc	.
2G	4d	2G	.	4b-	.
.	4c	.	.	4a	.
=16	=16	=16	=16	=16	=16
4G	4B-	0r	2r	2g	2d
4F	4A	.	.	.	.
4E	2G	.	2g	2g	2.e
4D	.	.	.	.	.
2C	2G	.	4g	2.cc	.
.	.	.	4f	.	4f
2C	[2c	.	4e	.	2g
.	.	.	4d	4b-	.
=17	=17	=17	=17	=17	=17
2.F	4c]	1r	2c	4a	1f
.	4B-	.	.	4g	.
.	4A	.	2c	4f	.
4E-	4G	.	.	4g	.
4D	1F	2r	4f	2a	1r
4C	.	.	4e-	.	.
4BB-	.	2d	4d	[2b-	.
4AA	.	.	4c	.	.
=18	=18	=18	=18	=18	=18
1.GG	1G	4d	4B-	4b-]	0r
.	.	4c	4A	4cc	.
.	.	4B-	4G	1dd	.
.	.	4A	4A	.	.
.	1D	4G	4B-	.	.
.	.	4F	4c	.	.
2BB-	.	4E	[2d	2g	.
.	.	4D	.	.	.
=19	=19	=19	=19	=19	=19
1AA	2A	1E	2d]	1a	2r
.	4A	.	2c#	.	2a
.	4G	.	.	.	.
2D	4F	2D	2d	1r	4a
.	4E	.	.	.	4g
4D	2D	2A	2d	.	4f
4C	.	.	.	.	4e
=20	=20	=20	=20	=20	=20
4BB-	2D	1B-	4d	2dd	2d
4AA	.	.	4c	.	.
2GG	2.G	.	4B-	4dd	2d
.	.	.	4A	4cc	.
2GG	.	2B-	2G	4b-	2.g
.	4F	.	.	4a	.
[2C	4E	2c	2G	2g	.
.	4D	.	.	.	4f
=21	=21	=21	=21	=21	=21
4C]	1C	2G	1c	2g	4e
4BB-	.	.	.	.	4d
4AA	.	2A	.	2.cc	2c
4GG	.	.	.	.	.
1FF	1c	4A	1A	.	1f
.	.	4G	.	4b-	.
.	.	4F	.	4a	.
.	.	4E	.	4g	.
=22	=22	=22	=22	=22	=22
2.BB-	2.d	2D	2.B-	4f	1f
.	.	.	.	4e	.
.	.	2.d	.	2d	.
4AA	4c	.	4c	.	.
[1GG	4B-	.	[1d	2.dd	1g
.	4A	4c	.	.	.
.	2G	4B-	.	.	.
.	.	4A	.	4cc	.
=23	=23	=23	=23	=23	=23
1GG]	0D	2G	0d]	4b-	1g
.	.	.	.	4a	.
.	.	2B-	.	1g	.
1D	.	1A	.	.	1a
.	.	.	.	2f#	.
=24	=24	=24	=24	=24	=24
[0GG	[0D	[0G	[0d	[0g	[0b
=25	=25	=25	=25	=25	=25
0GG]	0D]	0G]	0d]	0g]	0b]
==	==	==	==	==	==
*-	*-	*-	*-	*-	*-
!!!CDT: 1525/^1526/-1594/2/2
!!!OCY: Italia
!!!AGN: Mass (Parody)
!!!AST: renaissance, vocal
!!!ASW: Motet (unidentified)
!!!PWK: Masses, Book 1
!!!RNB: Cadence finals: D
!!!YOR: Le Opere Complete, v. 1, p. 182
!!!YOO: Rome, Italy: Fratelli Scalera
!!!END: 1992//
!!!EED: John Miller
!!!YEC: Copyright 2000, John Miller
!!!YEN: United States of America
!!!YEM: Rights to all derivative electronic formats reserved.
!!!YEM: Refer to licensing agreement for further details.
!!!YEM: This file must be accompanied by the licensing agreement.
!!!YEM: A copy of the licensing agreement may be found at http://www.music-cog.ohio-state.edu/HumdrumDatabases/Palestrina/license.txt
!!!EMD: converted to Humdrum by Bret Aarden
